img/preloader_text.svg

<svg width="282" height="29" viewBox="0 0 282 29" fill="none" xmlns="http://www.w3.org/2000/svg">
<path d="M0 1.01555H2.54054L9.31531 0.959145C13.1544 0.959145 16.3159 4.11866 16.3159 7.95524C16.3159 10.4942 14.961 12.6946 12.9285 13.9358C16.5982 14.2743 19.4775 17.3774 19.4775 21.1012C19.4775 25.107 16.2594 28.2665 12.251 28.2665H0.0564427C0.0564427 28.2665 1.18558 27.6459 1.29849 27.0253C1.46786 25.1634 1.69369 21.214 1.69369 14.6128C1.69369 8.06808 1.63723 3.89298 1.29849 2.14395C1.18558 1.63617 0 1.01555 0 1.01555ZM7.5087 2.14395C6.83122 2.14395 6.0973 2.20036 5.36336 2.20036C5.25045 4.06223 4.96816 8.18093 4.9117 13.823H8.01681C11.009 13.823 13.4931 10.9455 13.4931 7.95524C13.4931 4.96497 11.1784 2.2568 8.24263 2.14395H7.5087ZM11.0655 15.0642C10.1057 15.0078 8.86366 15.0078 7.56516 15.0078C6.66186 15.0078 5.75855 15.0642 4.96816 15.0642C4.96816 21.1576 5.19399 25.0506 5.36336 26.9125C7.22643 27.0253 9.37176 27.251 10.8961 27.251C14.0012 27.251 16.5417 24.2607 16.5417 21.1576C16.5417 18.0545 14.1141 15.2335 11.0655 15.0642Z" fill="#F2F2F2"/>
<path d="M23.8811 14.6693C23.8811 8.51946 23.7117 4.11865 23.4294 2.20036C23.3165 1.57974 22.2438 1.07196 22.2438 1.07196H28.7928C28.7928 1.07196 27.6637 1.52332 27.6072 2.20036C27.4943 4.06223 27.212 8.23734 27.1555 13.8794L34.4384 13.9358C38.4468 13.9358 41.6649 17.1518 41.6649 21.1576C41.6649 25.1634 38.4468 28.3794 34.4384 28.3794L25.0102 28.4358H22.2438C22.2438 28.4358 23.4294 27.7588 23.4859 27.1381C23.5988 25.2199 23.8811 21.214 23.8811 14.6693ZM32.3495 15.0078C30.8252 15.0078 28.7928 15.1206 27.1555 15.2335C27.1555 21.214 27.3814 24.9942 27.5507 26.856C29.4138 26.9689 31.6156 27.1381 33.1399 27.1381C36.245 27.1381 38.7856 24.1479 38.7856 21.0448C38.7856 17.9416 36.358 15.1206 33.2528 15.0078C32.9706 15.0642 32.6883 15.0078 32.3495 15.0078ZM50.3591 28.2665H43.0198C43.0198 28.2665 44.6006 27.1382 44.7135 25.9533C44.8829 23.6965 45.0522 17.0953 45.0522 11.3405C45.0522 7.78598 44.9958 4.62644 44.8264 3.04667C44.7135 1.86185 43.1327 1.01555 43.1327 1.01555H50.4156C50.4156 1.01555 48.8348 1.57977 48.7219 2.93385C48.4961 5.13425 48.3267 9.19648 48.3267 14.6128C48.3267 20.2549 48.4961 24.0914 48.6655 26.179C48.7784 27.5895 50.3591 28.2665 50.3591 28.2665Z" fill="#F2F2F2"/>
<path d="M53.5207 1.01556H65.0378C68.651 0.959143 71.1351 0.677052 71.1351 0.677052C71.1351 0.677052 70.7399 2.42608 70.5706 3.78017C70.3447 5.5292 70.3447 8.57589 70.3447 8.57589C70.3447 8.57589 68.9333 2.14396 64.812 2.14396H58.8841C58.7712 4.00583 58.4889 8.12452 58.4324 13.823L65.7153 13.8794C69.7237 13.8794 72.9417 17.0953 72.9417 21.0448C72.9417 25.0506 69.7237 28.2665 65.7153 28.2665H53.5207C53.5772 28.2101 54.6498 27.8716 54.7628 27.0253C54.9886 25.4455 55.2144 21.1012 55.2144 14.6128C55.2144 8.46302 54.8757 3.94941 54.7628 2.03112C54.6498 1.41049 53.5207 1.01556 53.5207 1.01556ZM63.6264 15.0642C62.1021 15.0642 60.0697 15.177 58.4324 15.2899C58.4324 21.214 58.6582 24.9942 58.8276 26.856C60.6907 26.9689 62.836 27.1381 64.3604 27.1381C67.4655 27.1381 70.006 24.1479 70.006 21.0448C70.006 17.9416 67.6348 15.1771 64.5297 15.0642C64.3039 15.1206 63.9652 15.0642 63.6264 15.0642Z" fill="#F2F2F2"/>
<path d="M104.332 11.3969C102.864 4.62647 96.8228 0 90.1609 0C89.0883 0 88.0721 0.11283 87.0558 0.338512C81.2408 1.57976 75.7081 7.61672 75.7081 14.7257C75.7081 15.6284 75.7645 16.5876 76.0468 17.6031C77.5712 25.107 83.2733 29 89.7093 29C90.8949 29 92.024 28.8872 93.266 28.6051C100.041 27.1382 104.67 21.1576 104.67 14.5C104.67 13.4844 104.557 12.4125 104.332 11.3969ZM100.944 18.5058C100.38 22.3988 97.2745 26.0097 92.9838 26.9689C92.3063 27.1381 91.5724 27.1946 90.8949 27.1946C87.2817 27.1946 83.8378 25.2763 82.0877 22.5681C81.2408 21.214 80.1117 18.9008 79.66 16.7568C79.3778 15.572 79.2649 14.2743 79.2649 13.0331C79.2649 11.9611 79.3778 10.8891 79.5471 9.92995C80.2811 6.31906 83.3862 2.76459 87.5075 1.86186C88.185 1.6926 88.9189 1.63617 89.5964 1.63617C92.9838 1.63617 96.2018 3.44163 98.1213 5.92413C99.4198 7.56031 100.323 9.87353 100.831 12.1868C101.057 13.2587 101.17 14.4436 101.17 15.572C101.17 16.644 101.057 17.716 100.944 18.5058Z" fill="#F2F2F2"/>
<path d="M112.292 14.9514V16.3619C112.292 22.1167 112.518 25.7841 112.744 27.251C112.8 27.928 113.929 28.323 113.929 28.323H107.38C107.38 28.323 108.509 27.7588 108.622 27.1381C108.735 25.3327 109.017 21.2704 109.017 14.6693C109.017 8.12452 108.792 3.89298 108.509 1.86185C108.453 1.41049 107.38 1.01555 107.38 1.01555H109.921L116.639 0.959145C120.478 0.959145 123.64 4.11866 123.64 7.95524C123.64 11.7918 120.535 14.8949 116.695 14.8949L112.292 14.9514ZM114.832 2.14395C114.155 2.14395 113.421 2.14394 112.8 2.20036C112.687 4.06223 112.405 8.23735 112.348 13.823H115.453C118.446 13.823 120.93 10.9455 120.93 8.01168C120.93 5.02141 118.615 2.3132 115.679 2.20036L114.832 2.14395Z" fill="#F2F2F2"/>
<path d="M160.393 28.2665H153.11C153.11 28.2665 154.521 27.8716 154.747 26.5175C154.917 24.4864 155.142 20.5934 155.142 14.6128C155.142 9.14006 154.804 3.6673 154.634 2.42606C154.239 2.14396 151.303 2.08756 148.876 2.08756C146.279 2.08756 143.399 2.08756 143.004 2.36966C142.665 4.28795 142.496 9.1965 142.496 14.5564C142.496 20.4241 142.722 24.2607 142.891 26.2918C143.004 27.4202 144.529 28.1537 144.529 28.1537H137.246C137.246 28.1537 138.77 27.4767 138.883 26.2354C138.996 25.107 139.278 20.7627 139.278 15.4027V14.5C139.222 9.02725 139.052 4.90854 138.883 2.76457C138.77 1.29764 137.246 0.902707 137.246 0.902707H160.393C160.28 1.01555 158.868 1.80542 158.756 2.76457C158.53 4.96496 158.36 9.14009 158.36 14.5C158.36 20.3677 158.53 24.2043 158.699 26.2354C158.812 27.5331 160.393 28.2665 160.393 28.2665Z" fill="#F2F2F2"/>
<path d="M165.135 14.6128C165.135 8.51943 164.853 4.17507 164.683 2.20036C164.627 1.57974 163.498 1.07196 163.498 1.07196H176.596C180.153 1.07196 182.75 0.620605 182.75 0.620605C182.75 0.620605 182.354 2.31322 182.128 3.72372C181.903 5.47275 181.903 8.51944 181.903 8.51944C181.903 8.51944 180.491 2.20036 176.37 2.20036H168.861C168.692 4.11865 168.466 8.3502 168.41 14.1051L173.66 14.0486C176.596 13.9922 177.273 12.1868 177.273 12.1868V17.2082C177.273 17.2082 176.483 15.4027 173.717 15.2899H168.466C168.522 21.7218 168.805 25.6148 168.918 27.251H176.483C180.548 27.1946 181.959 20.8191 181.959 20.8191C181.959 20.8191 182.016 23.9222 182.185 25.6148C182.411 27.0253 182.806 28.7179 182.806 28.7179C182.806 28.7179 180.209 28.2665 176.652 28.2665H163.554C163.554 28.2665 164.683 27.6459 164.796 27.0253C164.853 25.3327 165.135 21.4397 165.135 14.6128Z" fill="#F2F2F2"/>
<path d="M190.766 14.9514V16.3619C190.766 22.1167 190.992 25.7841 191.218 27.251C191.274 27.928 192.404 28.323 192.404 28.323H185.855C185.855 28.323 186.984 27.7588 187.097 27.1381C187.21 25.3327 187.492 21.2704 187.492 14.6693C187.492 8.12452 187.266 3.89298 186.984 1.86185C186.927 1.41049 185.855 1.01555 185.855 1.01555H188.395L195.113 0.959145C198.953 0.959145 202.114 4.11866 202.114 7.95524C202.114 11.7918 199.009 14.8949 195.17 14.8949L190.766 14.9514ZM193.25 2.14395C192.573 2.14395 191.839 2.14394 191.218 2.20036C191.105 4.06223 190.823 8.23735 190.766 13.823H193.871C196.864 13.823 199.348 10.9455 199.348 8.01168C199.348 5.02141 197.033 2.3132 194.097 2.20036L193.25 2.14395Z" fill="#F2F2F2"/>
<path d="M205.276 1.01555H207.816L214.591 0.959145C218.43 0.959145 221.592 4.11866 221.592 7.95524C221.592 10.4942 220.237 12.6946 218.204 13.9358C221.874 14.2743 224.753 17.3774 224.753 21.1012C224.753 25.107 221.535 28.2665 217.527 28.2665H205.332C205.332 28.2665 206.461 27.6459 206.574 27.0253C206.744 25.1634 206.969 21.214 206.969 14.6128C206.969 8.06808 206.913 3.89298 206.574 2.14395C206.461 1.63617 205.276 1.01555 205.276 1.01555ZM212.728 2.14395C212.05 2.14395 211.317 2.20036 210.583 2.20036C210.47 4.06223 210.187 8.18093 210.131 13.823H213.236C216.228 13.823 218.712 10.9455 218.712 7.95524C218.712 4.96497 216.398 2.2568 213.462 2.14395H212.728ZM216.285 15.0642C215.325 15.0078 214.083 15.0078 212.784 15.0078C211.881 15.0078 210.978 15.0642 210.187 15.0642C210.187 21.1576 210.413 25.0506 210.583 26.9125C212.446 27.0253 214.591 27.251 216.115 27.251C219.22 27.251 221.761 24.2607 221.761 21.1576C221.761 18.0545 219.39 15.2335 216.285 15.0642Z" fill="#F2F2F2"/>
<path d="M229.157 14.6693C229.157 8.51946 228.987 4.11865 228.705 2.20036C228.592 1.57974 227.52 1.07196 227.52 1.07196H234.068C234.068 1.07196 232.939 1.52332 232.883 2.20036C232.77 4.06223 232.488 8.23734 232.431 13.8794L239.714 13.9358C243.722 13.9358 246.941 17.1518 246.941 21.1576C246.941 25.1634 243.722 28.3794 239.714 28.3794L230.286 28.4358H227.52C227.52 28.4358 228.705 27.7588 228.762 27.1381C228.874 25.2199 229.157 21.214 229.157 14.6693ZM237.569 15.0078C236.044 15.0078 234.012 15.1206 232.375 15.2335C232.375 21.214 232.601 24.9942 232.77 26.856C234.633 26.9689 236.835 27.1381 238.359 27.1381C241.464 27.1381 244.005 24.1479 244.005 21.0448C244.005 17.9416 241.577 15.1206 238.472 15.0078C238.246 15.0642 237.907 15.0078 237.569 15.0078ZM255.578 28.2665H248.239C248.239 28.2665 249.82 27.1382 249.933 25.9533C250.102 23.6965 250.271 17.0953 250.271 11.3405C250.271 7.78598 250.215 4.62644 250.046 3.04667C249.933 1.86185 248.352 1.01555 248.352 1.01555H255.635C255.635 1.01555 254.054 1.57977 253.941 2.93385C253.715 5.13425 253.546 9.19648 253.546 14.6128C253.546 20.2549 253.715 24.0914 253.885 26.179C254.054 27.5895 255.578 28.2665 255.578 28.2665Z" fill="#F2F2F2"/>
<path d="M275.846 26.7432C275.846 26.5739 275.79 26.4047 275.733 26.2354C274.717 24.035 272.798 20.142 270.088 14.9514L263.539 26.3483C263.369 26.6304 263.313 26.856 263.313 27.0817C263.313 27.928 264.329 28.323 264.329 28.323H258.683C258.683 28.323 260.377 27.928 261.563 26.1226C263.031 23.8658 269.071 13.8794 269.297 13.5409C266.305 8.01167 264.103 4.34434 262.974 2.48247C262.297 1.4669 260.885 0.959145 260.885 0.959145H267.999C267.999 0.959145 267.039 1.24123 267.039 2.14395C267.039 2.36964 267.095 2.59533 267.208 2.82101C267.886 4.34436 269.128 6.88328 270.991 10.5506C273.136 6.82686 274.491 4.28794 275.169 2.93385C275.282 2.70817 275.338 2.48248 275.338 2.2568C275.338 1.29766 274.096 0.959145 274.096 0.959145H279.629C279.629 0.959145 277.879 1.46691 276.919 2.87742L271.725 11.9611C272.177 12.8074 272.628 13.6537 273.136 14.6128C276.016 20.0292 278.443 24.1479 279.798 26.3483C280.645 27.7588 282 28.2665 282 28.2665H274.661C274.717 28.323 275.846 27.6459 275.846 26.7432Z" fill="#F2F2F2"/>
<path d="M94.3387 14.7256C92.024 14.7256 90.161 16.5875 90.161 18.9008C90.161 16.5875 88.2979 14.7256 85.9832 14.7256C88.2979 14.7256 90.161 12.8638 90.2174 10.5506C90.161 12.8638 92.024 14.7256 94.3387 14.7256Z" fill="#F2F2F2"/>
</svg>

<svg xmlns="http://www.w3.org/2000/svg" width="282" height="29" fill="none"><path fill="#F2F2F2" d="M0 1.016h2.54L9.316.959c3.84 0 7 3.16 7 6.996 0 2.54-1.354 4.74-3.387 5.98 3.67.34 6.55 3.442 6.55 7.166 0 4.006-3.219 7.166-7.227 7.166H.056s1.13-.621 1.242-1.242c.17-1.862.396-5.811.396-12.412 0-6.545-.057-10.72-.396-12.469C1.186 1.636 0 1.016 0 1.016Zm7.509 1.128c-.678 0-1.412.056-2.146.056-.113 1.862-.395 5.98-.451 11.623h3.105c2.992 0 5.476-2.878 5.476-5.868s-2.315-5.698-5.25-5.811h-.734Zm3.556 12.92c-.96-.056-2.201-.056-3.5-.056-.903 0-1.806.056-2.597.056 0 6.094.226 9.987.395 11.849 1.863.112 4.009.338 5.533.338 3.105 0 5.646-2.99 5.646-6.093 0-3.104-2.428-5.925-5.477-6.094ZM23.881 14.67c0-6.15-.17-10.551-.452-12.47-.112-.62-1.185-1.128-1.185-1.128h6.549s-1.13.451-1.186 1.128c-.113 1.862-.395 6.037-.451 11.68l7.282.056a7.202 7.202 0 0 1 7.227 7.222 7.202 7.202 0 0 1-7.227 7.221l-9.428.057h-2.766s1.185-.677 1.242-1.298c.113-1.918.395-5.924.395-12.469Zm8.468.338c-1.524 0-3.556.113-5.193.226 0 5.98.225 9.76.395 11.622 1.863.113 4.065.282 5.589.282 3.105 0 5.646-2.99 5.646-6.093 0-3.103-2.428-5.924-5.533-6.037-.282.056-.565 0-.904 0Zm18.01 13.259h-7.34s1.582-1.129 1.695-2.314c.169-2.256.338-8.858.338-14.612 0-3.555-.056-6.715-.226-8.294-.112-1.185-1.693-2.031-1.693-2.031h7.283s-1.581.564-1.694 1.918c-.226 2.2-.395 6.262-.395 11.679 0 5.642.17 9.478.339 11.566.112 1.41 1.693 2.088 1.693 2.088ZM53.52 1.016h11.518C68.65.959 71.135.677 71.135.677s-.395 1.75-.564 3.103c-.226 1.75-.226 4.796-.226 4.796s-1.412-6.432-5.533-6.432h-5.928c-.113 1.862-.395 5.98-.452 11.679l7.283.056c4.009 0 7.227 3.216 7.227 7.166a7.202 7.202 0 0 1-7.227 7.221H53.521c.056-.056 1.129-.394 1.242-1.24.226-1.58.451-5.925.451-12.413 0-6.15-.338-10.664-.451-12.582-.113-.62-1.242-1.015-1.242-1.015Zm10.106 14.048c-1.524 0-3.556.113-5.194.226 0 5.924.226 9.704.396 11.566 1.863.113 4.008.282 5.532.282 3.106 0 5.646-2.99 5.646-6.093 0-3.103-2.371-5.868-5.476-5.98-.226.056-.565 0-.904 0ZM104.332 11.397C102.864 4.627 96.822 0 90.161 0c-1.073 0-2.089.113-3.105.339-5.815 1.24-11.348 7.278-11.348 14.387 0 .902.056 1.862.339 2.877C77.57 25.107 83.273 29 89.709 29c1.186 0 2.315-.113 3.557-.395 6.775-1.467 11.404-7.447 11.404-14.105 0-1.016-.113-2.088-.338-3.103Zm-3.388 7.109c-.564 3.893-3.67 7.504-7.96 8.463-.678.17-1.412.226-2.09.226-3.612 0-7.056-1.919-8.806-4.627-.847-1.354-1.976-3.667-2.428-5.811-.282-1.185-.395-2.483-.395-3.724 0-1.072.113-2.144.282-3.103.734-3.61 3.84-7.165 7.96-8.068.678-.17 1.412-.226 2.09-.226 3.387 0 6.605 1.806 8.524 4.288 1.299 1.636 2.202 3.95 2.71 6.263a16.78 16.78 0 0 1 .339 3.385c0 1.072-.113 2.144-.226 2.934ZM112.292 14.951v1.41c0 5.756.226 9.423.452 10.89.056.677 1.185 1.072 1.185 1.072h-6.549s1.129-.564 1.242-1.185c.113-1.805.395-5.868.395-12.469 0-6.544-.225-10.776-.508-12.807-.056-.452-1.129-.846-1.129-.846h2.541l6.718-.057c3.839 0 7.001 3.16 7.001 6.996a6.937 6.937 0 0 1-6.945 6.94l-4.403.056Zm2.54-12.807c-.677 0-1.411 0-2.032.056-.113 1.862-.395 6.037-.452 11.623h3.105c2.993 0 5.477-2.878 5.477-5.811 0-2.99-2.315-5.699-5.251-5.812l-.847-.056ZM160.393 28.267h-7.283s1.411-.395 1.637-1.75c.17-2.03.395-5.924.395-11.904 0-5.473-.338-10.946-.508-12.187-.395-.282-3.331-.338-5.758-.338-2.597 0-5.477 0-5.872.282-.339 1.918-.508 6.827-.508 12.186 0 5.868.226 9.705.395 11.736.113 1.128 1.638 1.862 1.638 1.862h-7.283s1.524-.677 1.637-1.919c.113-1.128.395-5.472.395-10.832V14.5c-.056-5.473-.226-9.591-.395-11.735-.113-1.467-1.637-1.862-1.637-1.862h23.147c-.113.113-1.525.902-1.637 1.862-.226 2.2-.396 6.375-.396 11.735 0 5.868.17 9.704.339 11.735.113 1.298 1.694 2.032 1.694 2.032ZM165.135 14.613c0-6.094-.282-10.438-.452-12.413-.056-.62-1.185-1.128-1.185-1.128h13.098c3.557 0 6.154-.451 6.154-.451s-.396 1.692-.622 3.103c-.225 1.749-.225 4.795-.225 4.795S180.491 2.2 176.37 2.2h-7.509c-.169 1.919-.395 6.15-.451 11.905l5.25-.056c2.936-.057 3.613-1.862 3.613-1.862v5.021s-.79-1.805-3.556-1.918h-5.251c.056 6.432.339 10.325.452 11.961h7.565c4.065-.056 5.476-6.432 5.476-6.432s.057 3.103.226 4.796c.226 1.41.621 3.103.621 3.103s-2.597-.451-6.154-.451h-13.098s1.129-.621 1.242-1.242c.057-1.692.339-5.585.339-12.412ZM190.766 14.951v1.41c0 5.756.226 9.423.452 10.89.056.677 1.186 1.072 1.186 1.072h-6.549s1.129-.564 1.242-1.185c.113-1.805.395-5.868.395-12.469 0-6.544-.226-10.776-.508-12.807-.057-.452-1.129-.846-1.129-.846h2.54l6.718-.057c3.84 0 7.001 3.16 7.001 6.996a6.937 6.937 0 0 1-6.944 6.94l-4.404.056Zm2.484-12.807c-.677 0-1.411 0-2.032.056-.113 1.862-.395 6.037-.452 11.623h3.105c2.993 0 5.477-2.878 5.477-5.811 0-2.99-2.315-5.699-5.251-5.812l-.847-.056ZM205.276 1.016h2.54l6.775-.057c3.839 0 7.001 3.16 7.001 6.996 0 2.54-1.355 4.74-3.388 5.98 3.67.34 6.549 3.442 6.549 7.166 0 4.006-3.218 7.166-7.226 7.166h-12.195s1.129-.621 1.242-1.242c.17-1.862.395-5.811.395-12.412 0-6.545-.056-10.72-.395-12.469-.113-.508-1.298-1.128-1.298-1.128Zm7.452 1.128c-.678 0-1.411.056-2.145.056-.113 1.862-.396 5.98-.452 11.623h3.105c2.992 0 5.476-2.878 5.476-5.868s-2.314-5.698-5.25-5.811h-.734Zm3.557 12.92c-.96-.056-2.202-.056-3.501-.056-.903 0-1.806.056-2.597.056 0 6.094.226 9.987.396 11.849 1.863.112 4.008.338 5.532.338 3.105 0 5.646-2.99 5.646-6.093 0-3.104-2.371-5.925-5.476-6.094ZM229.157 14.67c0-6.15-.17-10.551-.452-12.47-.113-.62-1.185-1.128-1.185-1.128h6.548s-1.129.451-1.185 1.128c-.113 1.862-.395 6.037-.452 11.68l7.283.056a7.203 7.203 0 0 1 7.227 7.222 7.203 7.203 0 0 1-7.227 7.221l-9.428.057h-2.766s1.185-.677 1.242-1.298c.112-1.918.395-5.924.395-12.469Zm8.412.338c-1.525 0-3.557.113-5.194.226 0 5.98.226 9.76.395 11.622 1.863.113 4.065.282 5.589.282 3.105 0 5.646-2.99 5.646-6.093 0-3.103-2.428-5.924-5.533-6.037-.226.056-.565 0-.903 0Zm18.009 13.259h-7.339s1.581-1.129 1.694-2.314c.169-2.256.338-8.858.338-14.612 0-3.555-.056-6.715-.225-8.294-.113-1.185-1.694-2.031-1.694-2.031h7.283s-1.581.564-1.694 1.918c-.226 2.2-.395 6.262-.395 11.679 0 5.642.169 9.478.339 11.566.169 1.41 1.693 2.088 1.693 2.088ZM275.846 26.743c0-.17-.056-.338-.113-.508-1.016-2.2-2.935-6.093-5.645-11.284l-6.549 11.397c-.17.282-.226.508-.226.734 0 .846 1.016 1.241 1.016 1.241h-5.646s1.694-.395 2.88-2.2c1.468-2.257 7.508-12.244 7.734-12.582-2.992-5.53-5.194-9.197-6.323-11.059-.677-1.015-2.089-1.523-2.089-1.523h7.114s-.96.282-.96 1.185c0 .226.056.451.169.677.678 1.523 1.92 4.062 3.783 7.73 2.145-3.724 3.5-6.263 4.178-7.617a1.5 1.5 0 0 0 .169-.677c0-.96-1.242-1.298-1.242-1.298h5.533s-1.75.508-2.71 1.918l-5.194 9.084c.452.846.903 1.693 1.411 2.652 2.88 5.416 5.307 9.535 6.662 11.735.847 1.41 2.202 1.919 2.202 1.919h-7.339c.056.056 1.185-.621 1.185-1.524Z"/><path fill="#F2F2F2" d="M94.339 14.726A4.167 4.167 0 0 0 90.16 18.9a4.167 4.167 0 0 0-4.178-4.175c2.315 0 4.178-1.862 4.234-4.175-.056 2.313 1.807 4.175 4.122 4.175Z"/></svg>
